remix/Map/rocket-2-fill.svg

<svg viewBox="0 0 24 24" fill="currentColor" xmlns="http://www.w3.org/2000/svg"><path d="M8.49816 20.0048H15.5018C14.8432 21.5842 13.5794 22.848 12 23.5066C10.4206 22.848 9.15679 21.5842 8.49816 20.0048ZM18 14.8095L20 17.0778V19.0048H4V17.0778L6 14.8095V9.00481C6 5.52156 8.50442 2.55825 12 1.46002C15.4956 2.55825 18 5.52156 18 9.00481V14.8095ZM12 11.0048C13.1046 11.0048 14 10.1094 14 9.00481C14 7.90024 13.1046 7.00481 12 7.00481C10.8954 7.00481 10 7.90024 10 9.00481C10 10.1094 10.8954 11.0048 12 11.0048Z"/></svg>

<svg viewBox="0 0 24 24" xmlns="http://www.w3.org/2000/svg"><path fill="none" d="M0 0h24v24H0Z"/><path d="M8.498 20H15.5v0c-.67 1.58-1.92 2.84-3.51 3.5v0c-1.59-.67-2.85-1.92-3.51-3.51ZM18 14.8l2 2.26v1.92H4v-1.93l2-2.27V8.97C6 5.48 8.5 2.52 12 1.43c3.49 1.09 6 4.06 6 7.545v5.805Zm-6-3.81v0c1.1 0 2-.9 2-2 0-1.11-.9-2-2-2v0c-1.11 0-2 .89-2 2 0 1.1.89 2 2 2Z"/></svg>
